X: 13219
T: Fisher's
R: hornpipe
M: 4/4
K: Dmajor
(3ABc|dAFD GBAG|FDFA GBAG|FDFA GEGB|AFDF E2 (3ABc|
dAFD GBAG|FDFA GBAG|FA (3def gece|d2dc d2:|
cd|ecAc egfe|fdAd fagf|ecAc efgf|(3efe (3dcB A2 dc|
BGDG BdcB|AFDF A2d2|cdef gece|d2dc d2:|

